!!!!SEGMENT: pl-kk--kk-i-475--007_studzinski-karol-msza-3cia-agnus-dei.krn
!!!id: 18xx:1383
!!!COM: Studziński, Karol
!!!OTL: Msza 3cia – Agnus Dei
!!!PDT:
!!!SMS-siglum: PL-Kk
!!!SMS-shelfmark: Kk.I.475
!!!NIFC-rismID: 1001140246
!!!URL-scan: http://repozytorium.nifc.pl/skany/pl-kk-nut--i-475
!!!ONB-nifc: UWAGA: części Mszy: 1. Kyrie, 2. Gloria, 3. Graduale, 4. Credo, 5. Sanctus, 6. O salutaris, 7. Agnus Dei
!!!SMS-variant:
!!!SMS-altvar:
**kern	**kern	**text	**dynam	**kern	**text	**dynam	**kern
*part4	*part3	*part3	*part3	*part2	*part2	*part2	*part1
*staff4	*staff3	*staff3	*	*staff2	*staff2	*	*staff1
*I"Basso	*I"Tenor	*	*	*I"Alto	*	*	*I"Sopran.
*I'B.	*I'T.	*	*	*I'A.	*	*	*I'S
*clefF4	*clefG2	*	*	*clefG2	*	*	*clefG2
*k[b-e-a-]	*k[b-e-a-]	*	*	*k[b-e-a-]	*	*	*k[b-e-a-]
*M4/4	*M4/4	*	*	*M4/4	*	*	*M4/4
*met(c)	*met(c)	*	*	*met(c)	*	*	*met(c)
=1	=1	=1	=1	=1	=1	=1	=1
!LO:SIC:v:s:= brak źródła	!LO:TX:rj:a:i:t=Andante moderato	!	!	!LO:TX:rj:a:i:t=Andante mod.to	!	!	!LO:SIC:v:s:= brak źródła
!	!	!	!LO:DY:rj:b	!	!	!	!
1ryy	2.cc\	A-	p	2.e-/	A-	.	1ryy
.	4cc\	-gnus	.	4e-/	-gnus	.	.
=2	=2	=2	=2	=2	=2	=2	=2
1ryy	2cc\	De-	.	2d/	De-	.	1ryy
.	4bn\	-i	.	4d/	-i	.	.
.	4dd\	qui	.	4g/	qui	.	.
=3	=3	=3	=3	=3	=3	=3	=3
1ryy	4gg\	t-	.	4g/	tol-	.	1ryy
.	8ff\	-llis	.	8g/	-lis	.	.
.	8ff\	pec-	.	8g/	pec-	.	.
.	4ee-\	-ca-	.	4g/	-ca-	.	.
.	4cc\	-ta	.	4e-/	-ta	.	.
!	!LO:LB:g=original	!	!	!	!	!	!
=4	=4	=4	=4	=4	=4	=4	=4
1ryy	2cc\	mun-	.	2e-/	mun-	.	1ryy
.	2bn/	-di	.	2d/	-di	.	.
!	!	!	!	!LO:LB:g=original	!	!	!
=5	=5	=5	=5	=5	=5	=5	=5
1ryy	2cc\	mi-	.	2.g/	mi-	.	1ryy
.	2cc\	-se-	.	.	.	.	.
.	.	.	.	4g/	-se-	.	.
=6	=6	=6	=6	=6	=6	=6	=6
1ryy	2cc\	-re-	.	2g/	-re-	.	1ryy
.	2cc\	-re	.	(>4f/	-re	.	.
.	.	.	.	4e-/)	.	.	.
=7	=7	=7	=7	=7	=7	=7	=7
1ryy	(2bn/	no-	.	(2d/	no-	.	1ryy
.	[2g/)	.	.	[2c/)	.	.	.
!	!LO:LB:g=original	!	!	!	!	!	!
=8	=8	=8	=8	=8	=8	=8	=8
!	!LO:SIC:o:s:=:v:zakończenie łuku na gó©ze	!	!	!	!	!	!
1ryy	(4g/]	.	.	2c/]	.	.	1ryy
.	4f#X/)	.	.	.	.	.	.
.	4g/	-bis	.	4Bn/	-bis	.	.
.	4r	.	.	4r	.	.	.
=9	=9	=9	=9	=9	=9	=9	=9
1ryy	2.g/	mi-	.	2.d/	mi-	.	1ryy
.	4a-/	-se-	.	4d/	-se-	.	.
!	!	!	!	!LO:LB:g=original	!	!	!
=10	=10	=10	=10	=10	=10	=10	=10
1ryy	2g/	-re-	.	2d/	-re-	.	1ryy
.	2g/	-re	.	2c/	-re	.	.
=11	=11	=11	=11	=11	=11	=11	=11
1ryy	2g/	mi-	.	2.e-/	mi-	.	1ryy
.	2a-/	-se	.	.	.	.	.
.	.	.	.	4e-/	-se-	.	.
!	!LO:PB:g=original	!	!	!	!	!	!
=12	=12	=12	=12	=12	=12	=12	=12
!	!LO:SIC:v:s:= brak źródła	!	!	!	!	!	!
1ryy	1ryy	.	.	2g/	-re-	.	1ryy
.	.	.	.	2e-/	-re	.	.
=13	=13	=13	=13	=13	=13	=13	=13
1ryy	1ryy	.	.	2.en/	mi-	.	1ryy
.	.	.	.	4e/	-se-	.	.
=14	=14	=14	=14	=14	=14	=14	=14
1ryy	1ryy	.	.	2c#X/	-re-	.	1ryy
.	.	.	.	2c#/	-re	.	.
!	!	!	!	!LO:LB:g=original	!	!	!
=15	=15	=15	=15	=15	=15	=15	=15
1ryy	1ryy	.	.	(>4d/	no-	.	1ryy
.	.	.	.	4g/	.	.	.
.	.	.	.	2f#X/)	.	.	.
=16	=16	=16	=16	=16	=16	=16	=16
1ryy	1ryy	.	.	2.g/	-bis	.	1ryy
.	.	.	.	4r	.	.	.
=17	=17	=17	=17	=17	=17	=17	=17
1ryy	1ryy	.	.	2d/	A-	.	1ryy
.	.	.	.	2d/	-gnus	.	.
=18	=18	=18	=18	=18	=18	=18	=18
1ryy	1ryy	.	.	2c/	De-	.	1ryy
.	.	.	.	4c/	-i	.	.
.	.	.	.	4e-/	qui	.	.
!	!	!	!	!LO:LB:g=original	!	!	!
=19	=19	=19	=19	=19	=19	=19	=19
1ryy	1ryy	.	.	4d/	tol-	.	1ryy
.	.	.	.	8d/L	-lis	.	.
.	.	.	.	8d/J	pec-	.	.
.	.	.	.	4f#X/	-ca-	.	.
.	.	.	.	4g/	-ta	.	.
=20	=20	=20	=20	=20	=20	=20	=20
1ryy	1ryy	.	.	2g/	mun-	.	1ryy
.	.	.	.	2f#X/	-di	.	.
=21	=21	=21	=21	=21	=21	=21	=21
1ryy	1ryy	.	.	2an/	mi-	.	1ryy
.	.	.	.	2f#X/	-se-	.	.
=22	=22	=22	=22	=22	=22	=22	=22
1ryy	1ryy	.	.	2g/	-re-	.	1ryy
.	.	.	.	2g/	-re	.	.
=23	=23	=23	=23	=23	=23	=23	=23
1ryy	1ryy	.	.	1fn/	no-	.	1ryy
=24	=24	=24	=24	=24	=24	=24	=24
1ryy	1ryy	.	.	2.f/	-bis	.	1ryy
.	.	.	.	4r	.	.	.
!	!	!	!	!LO:PB:g=original	!	!	!
=25	=25	=25	=25	=25	=25	=25	=25
1ryy	1ryy	.	.	2f/	A-	.	1ryy
.	.	.	.	2f/	-gnus	.	.
=26	=26	=26	=26	=26	=26	=26	=26
1ryy	1ryy	.	.	(>4f/	De-	.	1ryy
.	.	.	.	8e-/L	.	.	.
.	.	.	.	8d/J)	.	.	.
.	.	.	.	4e-/	-i	.	.
.	.	.	.	4f/	qui	.	.
=27	=27	=27	=27	=27	=27	=27	=27
1ryy	1ryy	.	.	4e-/	to-	.	1ryy
.	.	.	.	8e-/	-llis	.	.
.	.	.	.	8e-/	ppec-	.	.
.	.	.	.	4g/	-ca-	.	.
.	.	.	.	4e-/	-ta	.	.
=28	=28	=28	=28	=28	=28	=28	=28
1ryy	1ryy	.	.	2e-/	mun-	.	1ryy
.	.	.	.	2e-/	-di	.	.
=29	=29	=29	=29	=29	=29	=29	=29
1ryy	1ryy	.	.	2.d/	mi-	.	1ryy
.	.	.	.	4d/	-se-	.	.
!	!	!	!	!LO:LB:g=original	!	!	!
=30	=30	=30	=30	=30	=30	=30	=30
1ryy	1ryy	.	.	2e-/	-re-	.	1ryy
.	.	.	.	2e-/	-re	.	.
=31	=31	=31	=31	=31	=31	=31	=31
1ryy	1ryy	.	.	(2f/	mi-	.	1ryy
.	.	.	.	4d/)	.	.	.
.	.	.	.	4f/	-se-	.	.
=32	=32	=32	=32	=32	=32	=32	=32
1ryy	1ryy	.	.	2f/	-re-	.	1ryy
.	.	.	.	2f/	-re	.	.
=33	=33	=33	=33	=33	=33	=33	=33
1ryy	1ryy	.	.	2.f/	mi-	.	1ryy
.	.	.	.	4f/	-se-	.	.
=34	=34	=34	=34	=34	=34	=34	=34
1ryy	1ryy	.	.	2f/	-re-	.	1ryy
.	.	.	.	2f/	-re	.	.
!	!	!	!	!LO:LB:g=original	!	!	!
=35	=35	=35	=35	=35	=35	=35	=35
1ryy	1ryy	.	.	(2d/	no-	.	1ryy
.	.	.	.	2en/)	.	.	.
=36	=36	=36	=36	=36	=36	=36	=36
1ryy	1ryy	.	.	2.f/	-bis	.	1ryy
.	.	.	.	4r	.	.	.
=37	=37	=37	=37	=37	=37	=37	=37
1ryy	1ryy	.	.	2f/	A-	.	1ryy
.	.	.	.	2f/	-gnus	.	.
=38	=38	=38	=38	=38	=38	=38	=38
1ryy	1ryy	.	.	2f/	De-	.	1ryy
.	.	.	.	4e-/	-i	.	.
.	.	.	.	4f/	qui	.	.
=39	=39	=39	=39	=39	=39	=39	=39
1ryy	1ryy	.	.	4e-/	tol-	.	1ryy
.	.	.	.	8e-/	-lis	.	.
.	.	.	.	8e-/	pec-	.	.
.	.	.	.	4g/	-ca-	.	.
.	.	.	.	4e-/	-ta	.	.
!	!	!	!	!LO:LB:g=original	!	!	!
=40	=40	=40	=40	=40	=40	=40	=40
1ryy	1ryy	.	.	2e-/	mun-	.	1ryy
.	.	.	.	2e-/	-di	.	.
=41	=41	=41	=41	=41	=41	=41	=41
1ryy	1ryy	.	.	2d/	mi-	.	1ryy
.	.	.	.	2g/	-se-	.	.
=42	=42	=42	=42	=42	=42	=42	=42
1ryy	1ryy	.	.	2g/	-re-	.	1ryy
.	.	.	.	2g/	-re	.	.
=43	=43	=43	=43	=43	=43	=43	=43
1ryy	1ryy	.	.	(2g/	no-	.	1ryy
.	.	.	.	2a-/)	.	.	.
=44	=44	=44	=44	=44	=44	=44	=44
1ryy	1ryy	.	.	2g/	-bis	.	1ryy
.	.	.	.	2r	.	.	.
!	!	!	!	!LO:LB:g=original	!	!	!
=45	=45	=45	=45	=45	=45	=45	=45
1ryy	1ryy	.	.	2r	.	.	1ryy
.	.	.	.	4g/	mi-	.	.
.	.	.	.	4g-X/	-se-	.	.
=46	=46	=46	=46	=46	=46	=46	=46
1ryy	1ryy	.	.	2f/	-re-	.	1ryy
.	.	.	.	2f/	-re	.	.
=47	=47	=47	=47	=47	=47	=47	=47
1ryy	1ryy	.	.	(2b-\	no-	.	1ryy
.	.	.	.	2an\)	.	.	.
=48	=48	=48	=48	=48	=48	=48	=48
1ryy	1ryy	.	.	2.b-\	-bis	.	1ryy
.	.	.	.	4r	.	.	.
=49	=49	=49	=49	=49	=49	=49	=49
1ryy	1ryy	.	.	2.f/	mi-	.	1ryy
.	.	.	.	4f/	-se-	.	.
!	!	!	!	!LO:LB:g=original	!	!	!
=50	=50	=50	=50	=50	=50	=50	=50
1ryy	1ryy	.	.	2f/	-re-	.	1ryy
.	.	.	.	2f/	-re	.	.
=51	=51	=51	=51	=51	=51	=51	=51
1ryy	1ryy	.	.	1en/	no-	.	1ryy
=52	=52	=52	=52	=52	=52	=52	=52
1ryy	1ryy	.	.	2.d/	-bis	.	1ryy
.	.	.	.	4r	.	.	.
=53	=53	=53	=53	=53	=53	=53	=53
1ryy	1ryy	.	.	2f/	mi-	.	1ryy
.	.	.	.	2f/	-se-	.	.
=54	=54	=54	=54	=54	=54	=54	=54
1ryy	1ryy	.	.	2f/	-re-	.	1ryy
.	.	.	.	2f/	-re	.	.
=55	=55	=55	=55	=55	=55	=55	=55
1ryy	1ryy	.	.	1f/	no-	.	1ryy
!	!	!	!	!LO:LB:g=original	!	!	!
=56	=56	=56	=56	=56	=56	=56	=56
1ryy	1ryy	.	.	1en/;	-bis	.	1ryy
=57||	=57||	=57||	=57||	=57||	=57||	=57||	=57||
*	*	*	*	*k[b-enan]	*	*	*
*	*	*	*	*M4/4	*	*	*
*	*	*	*	*met(c)	*	*	*
!	!	!	!	!LO:TX:rj:a:i:t=Dona nobis. Allo. molto. | [quarter] = 100 |	!	!	!
1ryy	1ryy	.	.	4f/	Do-	.	1ryy
.	.	.	.	4f/	-na	.	.
.	.	.	.	4f/	no-	.	.
.	.	.	.	4f/	-bis	.	.
=58	=58	=58	=58	=58	=58	=58	=58
1ryy	1ryy	.	.	(4f/	pa-	.	1ryy
.	.	.	.	4en/	.	.	.
.	.	.	.	4f/)	-cem	.	.
.	.	.	.	(8d/L	do-	.	.
.	.	.	.	8d-X/J)	.	.	.
=59	=59	=59	=59	=59	=59	=59	=59
1ryy	1ryy	.	.	2c/	-na	.	1ryy
.	.	.	.	4c/	no-	.	.
.	.	.	.	4d/	-bis	.	.
!	!	!	!	!LO:LB:g=original	!	!	!
=60	=60	=60	=60	=60	=60	=60	=60
*	*	*	*	*k[b-]	*	*	*
1ryy	1ryy	.	.	(4c/	pa-	.	1ryy
.	.	.	.	4Bn/)	.	.	.
.	.	.	.	4c/	-cen	.	.
.	.	.	.	(4c/	do-	.	.
=61	=61	=61	=61	=61	=61	=61	=61
1ryy	1ryy	.	.	2f/)	.	.	1ryy
.	.	.	.	4B-/	-na	.	.
.	.	.	.	8c/L	.	.	.
.	.	.	.	8d/J	.	.	.
=62	=62	=62	=62	=62	=62	=62	=62
1ryy	1ryy	.	.	(>4e/	pa-	.	1ryy
.	.	.	.	8d/L	.	.	.
.	.	.	.	8e/J)	.	.	.
.	.	.	.	4f/	-cem	.	.
.	.	.	.	(>4g/	do-	.	.
=63	=63	=63	=63	=63	=63	=63	=63
1ryy	1ryy	.	.	4f/)	.	.	1ryy
.	.	.	.	4g/	-na	.	.
.	.	.	.	4a/	no-	.	.
.	.	.	.	(8g/L	-bis	.	.
.	.	.	.	8f/J)	.	.	.
!	!	!	!	!LO:LB:g=original	!	!	!
=64	=64	=64	=64	=64	=64	=64	=64
1ryy	1ryy	.	.	(4e/	pa-	.	1ryy
.	.	.	.	4f/)	.	.	.
.	.	.	.	2e/	-cem	.	.
=65	=65	=65	=65	=65	=65	=65	=65
1ryy	1ryy	.	.	4f/	Do-	.	1ryy
.	.	.	.	4f/	-na	.	.
.	.	.	.	4f/	no-	.	.
.	.	.	.	4f/	-bis	.	.
=66	=66	=66	=66	=66	=66	=66	=66
1ryy	1ryy	.	.	(4f/	pa-	.	1ryy
.	.	.	.	4e/	.	.	.
.	.	.	.	4f/)	-cem	.	.
.	.	.	.	(8d/L	do-	.	.
.	.	.	.	(8d-X/J)	.	.	.
=67	=67	=67	=67	=67	=67	=67	=67
1ryy	1ryy	.	.	4c/)	.	.	1ryy
.	.	.	.	4c/	na	.	.
.	.	.	.	4c/	no-	.	.
.	.	.	.	4c/	-bis	.	.
!	!	!	!	!LO:LB:g=original	!	!	!
=68	=68	=68	=68	=68	=68	=68	=68
1ryy	1ryy	.	.	(4c/	pa-	.	1ryy
.	.	.	.	4Bn/	.	.	.
.	.	.	.	4c/)	-cem	.	.
!	!	!	!	!	!	!LO:DY:b	!
.	.	.	.	.	.	f	.
.	.	.	.	(4e/	do-	.	.
=69	=69	=69	=69	=69	=69	=69	=69
1ryy	1ryy	.	.	(>2f/)	.	.	1ryy
.	.	.	.	(>8g/L)	.	.	.
.	.	.	.	8d/J)	.	.	.
.	.	.	.	(>8g/L	-na	.	.
.	.	.	.	8f/J)	.	.	.
=70	=70	=70	=70	=70	=70	=70	=70
1ryy	1ryy	.	.	(2e/	no-	.	1ryy
.	.	.	.	4f/)	.	.	.
.	.	.	.	4f/	-bis	.	.
=71	=71	=71	=71	=71	=71	=71	=71
1ryy	1ryy	.	.	(2f/	pa-	.	1ryy
.	.	.	.	2f#X/)	.	.	.
!	!	!	!	!LO:LB:g=original	!	!	!
=72	=72	=72	=72	=72	=72	=72	=72
1ryy	1ryy	.	.	4a/	.	.	1ryy
.	.	.	.	2g/	-cem	.	.
.	.	.	.	(4fn/	do-	.	.
=73	=73	=73	=73	=73	=73	=73	=73
1ryy	1ryy	.	.	(2e/)	.	.	1ryy
.	.	.	.	4f/)	.	.	.
.	.	.	.	4d/	-na	.	.
=74	=74	=74	=74	=74	=74	=74	=74
1ryy	1ryy	.	.	2c/	no-	.	1ryy
.	.	.	.	4c/	-bis	.	.
.	.	.	.	4r	.	.	.
=75	=75	=75	=75	=75	=75	=75	=75
1ryy	1ryy	.	.	2e/	no-	.	1ryy
.	.	.	.	4f/	.	.	.
.	.	.	.	4d/	-bis	.	.
=76	=76	=76	=76	=76	=76	=76	=76
1ryy	1ryy	.	.	2c/	pa-	.	1ryy
.	.	.	.	4c/	-cem	.	.
.	.	.	.	4r	.	.	.
=77	=77	=77	=77	=77	=77	=77	=77
!	!	!	!	!LO:SIC:o:s:=:v:dwa takty dopisane ołówkiem	!	!	!
1ryy	1ryy	.	.	2f/yy	do-	.	1ryy
.	.	.	.	2f/yy	-na	.	.
!	!	!	!	!LO:LB:g=original	!	!	!
=78	=78	=78	=78	=78	=78	=78	=78
1ryy	1ryy	.	.	2e/yy	no-	.	1ryy
.	.	.	.	2c/yy	-bis	.	.
=79	=79	=79	=79	=79	=79	=79	=79
1ryy	1ryy	.	.	[1d/	pa-	.	1ryy
=80	=80	=80	=80	=80	=80	=80	=80
1ryy	1ryy	.	.	(4d/]	.	.	1ryy
.	.	.	.	4c#X/	.	.	.
.	.	.	.	4d/)	.	.	.
.	.	.	.	4f/	-cem	.	.
=81	=81	=81	=81	=81	=81	=81	=81
1ryy	1ryy	.	.	4.f/	do-	.	1ryy
.	.	.	.	8f/	-na	.	.
.	.	.	.	4f/	no-	.	.
.	.	.	.	4f/	-bis	.	.
=82	=82	=82	=82	=82	=82	=82	=82
1ryy	1ryy	.	.	2.f/	pa-	.	1ryy
.	.	.	.	4f/	-cem	.	.
=83	=83	=83	=83	=83	=83	=83	=83
1ryy	1ryy	.	.	4.f/	do-	.	1ryy
.	.	.	.	8f/	-na	.	.
.	.	.	.	4f/	no-	.	.
.	.	.	.	4f/	-bis	.	.
!	!	!	!	!LO:PB:g=original	!	!	!
=84	=84	=84	=84	=84	=84	=84	=84
1ryy	1ryy	.	.	2.f/	pa-	.	1ryy
.	.	.	.	4f/	-cem	.	.
.	.	.	.	.	.	f	.
=85	=85	=85	=85	=85	=85	=85	=85
1ryy	1ryy	.	.	4.g/	do-	.	1ryy
.	.	.	.	8g/	-na	.	.
.	.	.	.	4g/	no-	.	.
.	.	.	.	4g/	-bis	.	.
=86	=86	=86	=86	=86	=86	=86	=86
1ryy	1ryy	.	.	2.g/	pa-	.	1ryy
.	.	.	.	4g/	-cem	.	.
=87	=87	=87	=87	=87	=87	=87	=87
1ryy	1ryy	.	.	4f/	do-	.	1ryy
.	.	.	.	4f/	-na	.	.
.	.	.	.	4f/	no-	.	.
!	!	!	!	!LO:SIC:s:o:=:v: dopisek f, przekreślony dźwięk d	!	!	!
.	.	.	.	4f/	-bis	.	.
=88	=88	=88	=88	=88	=88	=88	=88
1ryy	1ryy	.	.	2f/	pa-	.	1ryy
.	.	.	.	2e;/	-cem	.	.
!	!	!	!	!LO:LB:g=original	!	!	!
=89	=89	=89	=89	=89	=89	=89	=89
1ryy	1ryy	.	.	4f/	do-	.	1ryy
.	.	.	.	4f/	-na	.	.
.	.	.	.	4f/	no-	.	.
.	.	.	.	4f/	-bis	.	.
=90	=90	=90	=90	=90	=90	=90	=90
1ryy	1ryy	.	.	(4f/	pa-	.	1ryy
.	.	.	.	4en/	.	.	.
.	.	.	.	4f/)	-cem	.	.
.	.	.	.	(8d/L	do-	.	.
.	.	.	.	8d-X/J)	.	.	.
=91	=91	=91	=91	=91	=91	=91	=91
1ryy	1ryy	.	.	2c/	-na	.	1ryy
.	.	.	.	4c/	no-	.	.
.	.	.	.	4d/	-bis	.	.
=92	=92	=92	=92	=92	=92	=92	=92
1ryy	1ryy	.	.	(4c/	pa-	.	1ryy
.	.	.	.	4Bn/)	.	.	.
.	.	.	.	4c/	-cem	.	.
.	.	.	.	(>4c/	do-	.	.
=93	=93	=93	=93	=93	=93	=93	=93
1ryy	1ryy	.	.	2e/)	.	.	1ryy
.	.	.	.	4B-/	.	.	.
.	.	.	.	(8c/L	-na	.	.
.	.	.	.	8d/J)	.	.	.
!	!	!	!	!LO:LB:g=original	!	!	!
=94	=94	=94	=94	=94	=94	=94	=94
1ryy	1ryy	.	.	(4e/	pa-	.	1ryy
.	.	.	.	8d/L	.	.	.
.	.	.	.	8e/J)	.	.	.
.	.	.	.	4f/	-cem	.	.
.	.	.	.	(4g/	do-	.	.
=95	=95	=95	=95	=95	=95	=95	=95
1ryy	1ryy	.	.	4f/)	.	.	1ryy
.	.	.	.	4g/	-na	.	.
.	.	.	.	4a/	do-	.	.
.	.	.	.	4a/	-na	.	.
=96	=96	=96	=96	=96	=96	=96	=96
1ryy	1ryy	.	.	(>4g/	no-	.	1ryy
.	.	.	.	4f#X/	.	.	.
.	.	.	.	4g/)	.	.	.
.	.	.	.	4g/	-bis	.	.
=97	=97	=97	=97	=97	=97	=97	=97
1ryy	1ryy	.	.	(2.g/	Pa-	.	1ryy
.	.	.	.	4c/)	.	.	.
=98	=98	=98	=98	=98	=98	=98	=98
1ryy	1ryy	.	.	2c/	-cem	.	1ryy
.	.	.	.	2r	.	.	.
!	!	!	!	!LO:LB:g=original	!	!	!
=99	=99	=99	=99	=99	=99	=99	=99
1ryy	1ryy	.	.	2d/	do-	.	1ryy
.	.	.	.	2c/	-na	.	.
=100	=100	=100	=100	=100	=100	=100	=100
1ryy	1ryy	.	.	4c/	do-	.	1ryy
.	.	.	.	4f/	-na	.	.
.	.	.	.	4f/	no-	.	.
.	.	.	.	4f/	-bis	.	.
=101	=101	=101	=101	=101	=101	=101	=101
1ryy	1ryy	.	.	(2d/	pa-	.	1ryy
.	.	.	.	4d-X/	.	.	.
.	.	.	.	4c/)	.	.	.
=102	=102	=102	=102	=102	=102	=102	=102
1ryy	1ryy	.	.	2c/	-cem	.	1ryy
.	.	.	.	4c/	do-	.	.
.	.	.	.	4c/	-na	.	.
=103	=103	=103	=103	=103	=103	=103	=103
1ryy	1ryy	.	.	4c/	no-	.	1ryy
.	.	.	.	4c/	-bis	.	.
.	.	.	.	2c/	pa-	.	.
=104	=104	=104	=104	=104	=104	=104	=104
1ryy	1ryy	.	.	1f/ 1c/;	-cem	.	1ryy
==	==	==	==	==	==	==	==
*-	*-	*-	*-	*-	*-	*-	*-
!!!system-decoration: [(s1,s2,s3,s4)]
!!!RDF**kern: > = above
!!!RDF**kern: < = below
!!!ENC: Berenika Jozajtis
!!!END: 2021-01-09
!!!EED: Leszek Kubiak
!!!EST: 2021-01-15
